icons/svg/box.svg

﻿<?xml version="1.0" encoding="utf-8"?>
<!DOCTYPE svg PUBLIC "-//W3C//DTD SVG 1.1//EN" "http://www.w3.org/Graphics/SVG/1.1/DTD/svg11.dtd">
<svg xmlns="http://www.w3.org/2000/svg" xmlns:xlink="http://www.w3.org/1999/xlink" version="1.1" baseProfile="full" width="24" height="24" viewBox="0 0 24.00 24.00" enable-background="new 0 0 24.00 24.00" xml:space="preserve">
	<path fill="#000000" fill-opacity="1" stroke-linejoin="round" d="M 15.3875,14.0365L 15.3875,14.036C 15.3872,12.6207 14.2399,11.4738 12.8249,11.4738C 11.4097,11.4738 10.2626,12.6207 10.2623,14.036L 10.2623,14.0365C 10.2626,15.4515 11.4097,16.5985 12.8249,16.5985C 14.2399,16.5985 15.3872,15.4515 15.3875,14.0365 Z M 17.0971,14.0365C 17.0971,16.3958 15.1844,18.3088 12.8248,18.3088C 11.189,18.3088 9.76858,17.3888 9.05078,16.0386C 8.33297,17.3888 6.9125,18.3088 5.27667,18.3088C 2.94091,18.3088 1.04416,16.4338 1.00619,14.1072L 1.00442,14.1072L 1.00442,14.1067L 1.00442,7.01928L 1.00442,7.01883L 1.00483,7.01883C 1.01468,6.55506 1.39301,6.1819 1.85921,6.1819C 2.32541,6.1819 2.70378,6.55506 2.7137,7.01883L 2.7141,7.01883L 2.7141,7.01928L 2.7141,10.6175C 3.42801,10.0814 4.31521,9.76363 5.27667,9.76363C 6.9125,9.76363 8.33297,10.6834 9.05078,12.0336C 9.76859,10.6834 11.1891,9.76363 12.8248,9.76363C 15.1844,9.76363 17.0971,11.6764 17.0971,14.036L 17.0971,14.0365 Z M 7.83928,14.0365L 7.83928,14.036C 7.83902,12.6207 6.69183,11.4738 5.27667,11.4738C 3.86154,11.4738 2.71437,12.6207 2.7141,14.036L 2.7141,14.0365C 2.71437,15.4515 3.86154,16.5985 5.27667,16.5985C 6.69183,16.5985 7.83901,15.4515 7.83928,14.0365 Z M 22.8442,16.9643L 22.844,16.9644C 22.9546,17.1186 23.0069,17.2977 23.0044,17.4746C 23.001,17.7302 22.8835,17.9814 22.6631,18.1469C 22.5094,18.2625 22.3294,18.3181 22.1509,18.3181C 21.8968,18.3181 21.6456,18.2051 21.4771,17.991L 19.5887,15.4666L 17.7003,17.991L 17.7,17.9907C 17.5317,18.2051 17.2806,18.3181 17.0264,18.3181C 16.848,18.3181 16.6679,18.2623 16.5141,18.1467C 16.289,17.9777 16.1712,17.7191 16.1729,17.4578C 16.1738,17.2863 16.2262,17.1137 16.3334,16.9644L 16.3333,16.9643L 16.3335,16.9639L 16.3333,16.9638L 18.521,14.0394L 16.3333,11.1149L 16.3335,11.1148L 16.3333,11.1144L 16.3334,11.1143C 16.2241,10.9621 16.1718,10.7855 16.1729,10.6107C 16.1743,10.3529 16.2919,10.0988 16.5141,9.9319C 16.8869,9.65189 17.4135,9.72301 17.7,10.088L 17.7003,10.0876L 19.5887,12.612L 21.4774,10.0878C 21.7638,9.72291 22.2904,9.65178 22.6631,9.93172C 22.8901,10.1022 23.0079,10.3635 23.0044,10.627C 23.0022,10.7964 22.9499,10.9667 22.844,11.1143L 22.8442,11.1144L 22.844,11.1147L 22.8442,11.1149L 20.6564,14.0394L 22.8442,16.9638L 22.844,16.964L 22.8442,16.9643 Z "/>
</svg>

<svg xmlns="http://www.w3.org/2000/svg" version="1.1" baseProfile="full" width="24" height="24" viewBox="0 0 24.00 24.00" xml:space="preserve"><path fill="#000" fill-opacity="1" stroke-linejoin="round" d="M15.387 14.037c0-1.416-1.147-2.563-2.562-2.563-1.415 0-2.562 1.147-2.563 2.562 0 1.415 1.148 2.563 2.563 2.563 1.415-.002 2.562-1.15 2.563-2.564zm1.71 0c0 2.36-1.913 4.272-4.272 4.272-1.636 0-3.056-.92-3.774-2.27-.717 1.35-2.138 2.27-3.773 2.27-2.336 0-4.233-1.876-4.27-4.203h-.003V7.02c.01-.465.39-.838.855-.838.465 0 .844.373.854.837v3.598c.714-.537 1.6-.854 2.563-.854 1.635 0 3.056.92 3.774 2.27.72-1.35 2.14-2.27 3.775-2.27 2.36 0 4.272 1.912 4.272 4.272zm-9.258 0c0-1.416-1.148-2.563-2.563-2.563-1.415 0-2.563 1.147-2.563 2.562 0 1.415 1.148 2.563 2.563 2.563 1.415-.002 2.562-1.15 2.562-2.564zm15.004 2.927c.11.155.163.334.16.51-.003.256-.12.507-.34.673-.155.116-.335.17-.513.17-.253 0-.504-.112-.673-.326l-1.888-2.523-1.89 2.524c-.168.215-.42.328-.674.328-.178 0-.358-.056-.512-.17-.225-.17-.343-.43-.34-.69 0-.172.052-.344.16-.494l2.187-2.925-2.187-2.925c-.11-.153-.16-.33-.16-.504 0-.257.12-.51.34-.678.374-.28.9-.21 1.187.156l1.89 2.524 1.887-2.524c.287-.365.813-.436 1.186-.156.227.17.345.43.34.695 0 .17-.053.34-.16.487l-2.187 2.925 2.188 2.924z"/></svg>
